public/img/search.svg

<svg width="19" height="19" viewBox="0 0 19 19" fill="none" xmlns="http://www.w3.org/2000/svg">
<path d="M18.7111 17.306L14.0273 12.6028C15.2316 11.2207 15.8914 9.48166 15.8914 7.67124C15.8914 3.44139 12.3269 0 7.94571 0C3.56452 0 0 3.44139 0 7.67124C0 11.9011 3.56452 15.3425 7.94571 15.3425C9.59048 15.3425 11.1579 14.8635 12.4979 13.9543L17.2173 18.6931C17.4146 18.8909 17.6799 19 17.9642 19C18.2333 19 18.4886 18.9009 18.6824 18.7208C19.0942 18.3383 19.1074 17.7039 18.7111 17.306ZM7.94571 2.00119C11.1841 2.00119 13.8186 4.54471 13.8186 7.67124C13.8186 10.7978 11.1841 13.3413 7.94571 13.3413C4.70732 13.3413 2.07279 10.7978 2.07279 7.67124C2.07279 4.54471 4.70732 2.00119 7.94571 2.00119Z" fill="white"/>
</svg>

<svg width="19" height="19" fill="none" xmlns="http://www.w3.org/2000/svg"><path d="M18.711 17.306l-4.684-4.703a7.49 7.49 0 001.864-4.932C15.891 3.441 12.327 0 7.946 0S0 3.441 0 7.671s3.565 7.671 7.946 7.671a8.056 8.056 0 004.552-1.388l4.72 4.74c.197.197.462.306.746.306.27 0 .525-.1.718-.28a.977.977 0 00.03-1.414zM7.946 2.001c3.238 0 5.873 2.544 5.873 5.67 0 3.127-2.635 5.67-5.873 5.67-3.239 0-5.873-2.543-5.873-5.67 0-3.126 2.634-5.67 5.873-5.67z" fill="#fff"/></svg>
